assets-raw/svg/vs.svg

<?xml version="1.0" encoding="UTF-8" standalone="no"?>
<svg width="97px" height="97px" viewBox="0 0 97 97" version="1.1" xmlns="http://www.w3.org/2000/svg" xmlns:xlink="http://www.w3.org/1999/xlink" xmlns:sketch="http://www.bohemiancoding.com/sketch/ns">
    <!-- Generator: Sketch 3.3.3 (12081) - http://www.bohemiancoding.com/sketch -->
    <title>vs</title>
    <desc>Created with Sketch.</desc>
    <defs></defs>
    <g id="Page-1" stroke="none" stroke-width="1" fill="none" fill-rule="evenodd" sketch:type="MSPage">
        <g id="Desktop" sketch:type="MSArtboardGroup" transform="translate(-465.000000, -304.000000)">
            <g id="vs" sketch:type="MSLayerGroup" transform="translate(465.000000, 304.000000)">
                <circle id="Oval-1" fill="#F4B400" sketch:type="MSShapeGroup" cx="48.5" cy="48.5" r="48.5"></circle>
                <path d="M50.1730001,32.0280745 C48.3703245,36.6387642 46.3250116,43.6413608 44.0370001,53.0360745 C41.9569897,61.5294503 40.9343333,66.3480688 40.9690001,67.4920745 C40.9343333,67.596075 40.9689996,68.3934004 41.0730001,69.8840745 C41.1423338,70.6814118 41.0210017,71.4094045 40.7090001,72.0680745 C40.3623317,72.9000786 39.8943364,73.368074 39.3050001,73.4720745 C38.2996618,73.6800755 36.2803486,73.298746 33.2470001,72.3280745 C30.2136516,71.357403 28.4716691,70.5080781 28.0210001,69.7800745 C27.8129991,69.4334061 27.691667,68.9827439 27.6570001,68.4280745 C27.6223333,67.7347377 27.5703338,67.2667424 27.5010001,67.0240745 C23.5489804,54.5093452 21.1743375,43.2947907 20.3770001,33.3800745 C20.3770001,33.2067403 20.2903343,32.8427439 20.1170001,32.2880745 C20.0129996,31.8720724 19.9783333,31.508076 20.0130001,31.1960745 C20.1863343,29.9827351 20.688996,29.2374092 21.5210001,28.9600745 C21.9370022,28.8214071 23.3929877,29.1507372 25.8890001,29.9480745 C28.52368,30.7800786 29.9796654,31.4907382 30.2570001,32.0800745 C30.3956675,32.4267429 30.3956675,33.1547356 30.2570001,34.2640745 C30.2223333,34.4720755 30.1010012,34.7754058 29.8930001,35.1740745 C29.6849991,35.5727431 29.5983333,35.9107398 29.6330001,36.1880745 C30.1530027,39.8280927 30.6383312,43.0347273 31.0890001,45.8080745 C32.198339,52.4641078 33.064997,56.4160682 33.6890001,57.6640745 C34.2783364,54.4400584 35.318326,50.3147663 36.8090001,45.2880745 C38.2996743,40.2613827 39.3396639,36.066758 39.9290001,32.7040745 C39.963667,32.0454045 40.1196654,31.1614134 40.3970001,30.0520745 C40.7783354,29.2200703 41.3503297,28.6827424 42.1130001,28.4400745 C42.6676696,28.2667403 43.9676566,28.561404 46.0130001,29.3240745 C48.2316779,30.1907455 49.6183307,31.0920698 50.1730001,32.0280745 L50.1730001,32.0280745 Z M75.5490001,64.0080745 C75.5490001,66.5734206 74.6996753,68.6793996 73.0010001,70.3260745 C71.302325,71.9727494 68.9450152,72.8307408 65.9290001,72.9000745 C65.1663297,72.9000745 64.3516711,72.7787424 63.4850001,72.5360745 C61.8903255,72.0854056 61.0583338,71.8600745 60.9890001,71.8600745 C60.156996,71.6867403 59.3163377,71.5047421 58.4670001,71.3140745 C57.6176626,71.1234069 56.8810033,70.7334108 56.2570001,70.1440745 C55.3209955,69.3120703 54.5583364,67.9600838 53.9690001,66.0880745 C53.2409965,63.9040636 52.6863354,62.5347439 52.3050001,61.9800745 C52.0276654,61.7027398 51.6983354,61.2174113 51.3170001,60.5240745 C51.2129996,60.0040719 51.308332,59.4927437 51.6030001,58.9900745 C51.8976683,58.4874053 52.2529981,58.1667418 52.6690001,58.0280745 C52.8770012,57.9587408 53.2583307,57.9240745 53.8130001,57.9240745 C55.0263395,57.9240745 56.5083247,58.0714063 58.2590001,58.3660745 C60.0096756,58.6607426 60.9889991,58.9294066 61.1970001,59.1720745 C61.4050012,59.4147424 61.6823317,60.6627299 62.0290001,62.9160745 C62.3410017,64.9960849 62.808997,66.1574066 63.4330001,66.4000745 C63.5716675,66.4694082 63.7276659,66.5040745 63.9010001,66.5040745 C64.5596701,66.5040745 65.1229978,65.9580799 65.5910001,64.8660745 C66.0590025,63.774069 66.2930001,62.5347481 66.2930001,61.1480745 C66.2930001,58.1320594 65.3570095,56.1214128 63.4850001,55.1160745 C59.186312,52.7933962 56.1703421,50.6440844 54.4370001,48.6680745 C52.4263234,46.380063 51.5249991,43.6760901 51.7330001,40.5560745 C51.9063343,37.9560615 52.8509916,35.3300877 54.5670001,32.6780745 C56.2830087,30.0260612 58.0943239,28.4747434 60.0010001,28.0240745 C60.7983375,27.8507403 63.2249799,28.6133993 67.2810001,30.3120745 C68.2863385,30.6934097 69.3003284,31.0920724 70.3230001,31.5080745 C71.3456719,31.9240766 72.168997,32.5307372 72.7930001,33.3280745 C73.7636717,34.5414139 74.2490001,36.6387262 74.2490001,39.6200745 C74.2490001,40.1747439 74.231667,40.9894024 74.1970001,42.0640745 C74.1623333,43.0000792 74.1450001,43.6587392 74.1450001,44.0400745 C74.179667,44.2827424 74.3009991,44.681405 74.5090001,45.2360745 C74.6823343,45.6174097 74.751667,45.9987392 74.7170001,46.3800745 C74.6476665,47.9054154 74.0063395,48.7547403 72.7930001,48.9280745 C72.0996633,49.032075 70.8170095,48.7720776 68.9450001,48.1480745 C66.8649897,47.4894045 65.5476696,46.778745 64.9930001,46.0160745 C64.9236665,45.912074 64.8890001,45.5654108 64.8890001,44.9760745 C64.8890001,44.4560719 64.9496662,43.277417 65.0710001,41.4400745 C65.1923341,39.602732 65.2530001,38.2680786 65.2530001,37.4360745 C65.2530001,35.9454004 65.0796685,35.2174076 64.7330001,35.2520745 C63.6583281,35.3214082 62.7656704,36.0927338 62.0550001,37.5660745 C61.3443299,39.0394152 60.9890001,40.7120651 60.9890001,42.5840745 C60.9890001,45.7040901 61.9076576,47.9227346 63.7450001,49.2400745 C65.8250105,50.5574144 67.9049897,51.8747346 69.9850001,53.1920745 C71.96101,54.4747476 73.3303297,55.7574014 74.0930001,57.0400745 C75.0636717,58.7040828 75.5490001,61.0267262 75.5490001,64.0080745 L75.5490001,64.0080745 Z" id="VS" fill="#404040" sketch:type="MSShapeGroup"></path>
            </g>
        </g>
    </g>
</svg>

<svg viewBox="0 0 97 97" xmlns="http://www.w3.org/2000/svg"><g fill="none" fill-rule="evenodd"><circle fill="#fbe400" cx="48.5" cy="48.5" r="48.5"/><path d="m50.17 32.03c-1.803 4.611-3.848 11.613-6.136 21.01-2.08 8.493-3.103 13.312-3.068 14.456-.035.104 0 .901.104 2.392.069.797-.052 1.525-.364 2.184-.347.832-.815 1.3-1.404 1.404-1.01.208-3.02-.173-6.06-1.144-3.033-.971-4.775-1.82-5.226-2.548-.208-.347-.329-.797-.364-1.352-.035-.693-.087-1.161-.156-1.404-3.952-12.515-6.327-23.729-7.124-33.644 0-.173-.087-.537-.26-1.092-.104-.416-.139-.78-.104-1.092.173-1.213.676-1.959 1.508-2.236.416-.139 1.872.191 4.368.988 2.635.832 4.091 1.543 4.368 2.132.139.347.139 1.075 0 2.184-.035.208-.156.511-.364.91-.208.399-.295.737-.26 1.014.52 3.64 1.01 6.847 1.456 9.62 1.109 6.656 1.976 10.608 2.6 11.856.589-3.224 1.629-7.349 3.12-12.376 1.491-5.03 2.531-9.221 3.12-12.584.035-.659.191-1.543.468-2.652.381-.832.953-1.369 1.716-1.612.555-.173 1.855.121 3.9.884 2.219.867 3.605 1.768 4.16 2.704m25.376 31.98c0 2.565-.849 4.671-2.548 6.318-1.699 1.647-4.056 2.505-7.07 2.574-.763 0-1.577-.121-2.444-.364-1.595-.451-2.427-.676-2.496-.676-.832-.173-1.673-.355-2.522-.546-.849-.191-1.586-.581-2.21-1.17-.936-.832-1.699-2.184-2.288-4.056-.728-2.184-1.283-3.553-1.664-4.108-.277-.277-.607-.763-.988-1.456-.104-.52-.009-1.031.286-1.534.295-.503.65-.823 1.066-.962.208-.069.589-.104 1.144-.104 1.213 0 2.695.147 4.446.442 1.751.295 2.73.563 2.938.806.208.243.485 1.491.832 3.744.312 2.08.78 3.241 1.404 3.484.139.069.295.104.468.104.659 0 1.222-.546 1.69-1.638.468-1.092.702-2.331.702-3.718 0-3.02-.936-5.03-2.808-6.03-4.299-2.323-7.315-4.472-9.05-6.448-2.01-2.288-2.912-4.992-2.704-8.112.173-2.6 1.118-5.226 2.834-7.878 1.716-2.652 3.527-4.203 5.434-4.654.797-.173 3.224.589 7.28 2.288 1.01.381 2.02.78 3.042 1.196 1.023.416 1.846 1.023 2.47 1.82.971 1.213 1.456 3.311 1.456 6.292 0 .555-.017 1.369-.052 2.444-.035.936-.052 1.595-.052 1.976.035.243.156.641.364 1.196.173.381.243.763.208 1.144-.069 1.525-.711 2.375-1.924 2.548-.693.104-1.976-.156-3.848-.78-2.08-.659-3.397-1.369-3.952-2.132-.069-.104-.104-.451-.104-1.04 0-.52.061-1.699.182-3.536.121-1.837.182-3.172.182-4 0-1.491-.173-2.219-.52-2.184-1.075.069-1.967.841-2.678 2.314-.711 1.473-1.066 3.146-1.066 5.02 0 3.12.919 5.339 2.756 6.656 2.08 1.317 4.16 2.635 6.24 3.952 1.976 1.283 3.345 2.565 4.108 3.848.971 1.664 1.456 3.987 1.456 6.968" fill="#4a4a4a"/></g></svg>
